tools/work/Papirus/mimetypes/_TEMPLATE@48x48.SVG

<?xml version="1.0" encoding="UTF-8" standalone="no"?>
<svg xmlns="http://www.w3.org/2000/svg" height="48" width="48" version="1.1">
 <path d="m10 4c-1.108 0-2 0.892-2 2v36c0 1.108 0.892 2 2 2h28c1.108 0 2-0.892 2-2v-26l-11-1-1-11z" fill="#cccccc"/>
 <path d="M 10 4 C 8.892 4 8 4.892 8 6 L 8 7 C 8 5.892 8.892 5 10 5 L 28 5 L 28 4 L 10 4 z" style="fill:#ffffff;opacity:0.2"/>
 <path d="m28 4v10c0 1.1046 0.89543 2 2 2h10l-12-12z" fill="#ebebeb"/>
</svg>

<svg xmlns="http://www.w3.org/2000/svg" width="48" height="48" version="1.1">
 <path style="opacity:0.2" d="M 10,5 C 8.892,5 8,5.892 8,7 V 43 C 8,44.108 8.892,45 10,45 H 38 C 39.108,45 40,44.108 40,43 V 17 L 28,5 Z"/>
 <path style="fill:#cccccc" d="M 10,4 C 8.892,4 8,4.892 8,6 V 42 C 8,43.108 8.892,44 10,44 H 38 C 39.108,44 40,43.108 40,42 V 16 L 28,4 Z"/>
 <path style="opacity:0.2" d="M 40,17 28,5 V 15 C 28,16.108 28.892,17 30,17 Z"/>
 <path style="fill:#ebebeb" d="M 40,16 28,4 V 14 C 28,15.108 28.892,16 30,16 Z"/>
 <path style="opacity:0.2;fill:#ffffff" d="M 10 4 C 8.892 4 8 4.892 8 6 L 8 7 C 8 5.892 8.892 5 10 5 L 28 5 L 28 4 L 10 4 z"/>
</svg>
